X: 4
T: Larkens Fancy
%R: march, reel
B: "Twenty Four Country Dances for the Year 1799", Thomas Skillern, ed. p.2 #2
F: http://www.vwml.org/browse/browse-collections-dance-tune-books/browse-skillerns1799
Z: 2014 John Chambers <jc:trillian.mit.edu>
M: 2/4
L: 1/8
K: G
d |\
BGGG | dgfe | dBgB | (BAA) d |\
BGGG | dgfe | dBcA | GD G, :|
|: d |\
(dgfg) | (GBGB) | dgfg | (ecce) |\
(dgfg) | (GBGB) | dBcA | GD G, :|
%%begintext align
%% Sett and Hands 3 round with the 1st Lady the
%% same with the 1st Gent. lead down the middle up
%% again, Cast off and Allemand.
%%endtext

%%sep 1 1 500
%%sep 1 1 500
